groups/oxygen/aldehyde.svg

<svg height="256" viewBox="0 0 256 256" width="256" xmlns="http://www.w3.org/2000/svg"><path d="m0 0h256v256h-256z" fill="#fff"/><g fill="none" stroke-width="2"><path d="m212 124.1-93.7 54.2" stroke="#000"/><path d="m118.3 178.3-78.2-45.1" stroke="#000"/><path d="m118.3 159.6-70.1-40.4" stroke="#000"/><path d="m122.9 175.6-4.6 2.7-3.9-2.2" stroke="#000" stroke-miterlimit="10"/><path d="m184.854 77.275c-3.513 2.033-.803 6.717 2.711 4.684 3.513-2.032 6.223 2.652 2.71 4.685-3.514 2.033-.803 6.717 2.71 4.684 3.513-2.032 6.224 2.652 2.71 4.685-3.513 2.032-.803 6.717 2.71 4.684 3.514-2.033 6.224 2.652 2.711 4.684-3.514 2.033-.804 6.718 2.71 4.685 3.513-2.033 6.223 2.652 2.71 4.684-3.513 2.033-.803 6.717 2.71 4.685 3.514-2.033 6.224 2.651 2.71 4.684-3.513 2.033-.803 6.717 2.711 4.685 3.513-2.033 6.223 2.651 2.71 4.684-3.514 2.033-.803 6.717 2.71 4.684 3.514-2.032 6.224 2.652 2.71 4.685-3.513 2.033-.803 6.717 2.711 4.684 3.513-2.033 6.223 2.652 2.71 4.685-3.514 2.032-.803 6.717 2.71 4.684s6.224 2.652 2.71 4.684c-3.513 2.033-.803 6.718 2.71 4.685 3.514-2.033 6.224 2.652 2.711 4.684" stroke="#7f7f7f"/></g><text font-family="sans-serif" font-size="40" x="16.5" y="137.2">O</text></svg>

<?xml version='1.0' encoding='iso-8859-1'?>
<svg version='1.1' baseProfile='full'
              xmlns='http://www.w3.org/2000/svg'
                      xmlns:rdkit='http://www.rdkit.org/xml'
                      xmlns:xlink='http://www.w3.org/1999/xlink'
                  xml:space='preserve'
width='256px' height='256px' viewBox='0 0 256 256'>
<!-- END OF HEADER -->
<rect style='opacity:1.0;fill:#FFFFFF;stroke:none' width='256.0' height='256.0' x='0.0' y='0.0'> </rect>
<path class='bond-0 atom-0 atom-1' d='M 212.0,124.1 L 118.3,178.3' style='fill:none;fill-rule:evenodd;stroke:#000000;stroke-width:2.0px;stroke-linecap:butt;stroke-linejoin:miter;stroke-opacity:1' />
<path class='bond-1 atom-1 atom-2' d='M 118.3,178.3 L 40.1,133.2' style='fill:none;fill-rule:evenodd;stroke:#000000;stroke-width:2.0px;stroke-linecap:butt;stroke-linejoin:miter;stroke-opacity:1' />
<path class='bond-1 atom-1 atom-2' d='M 118.3,159.6 L 48.2,119.2' style='fill:none;fill-rule:evenodd;stroke:#000000;stroke-width:2.0px;stroke-linecap:butt;stroke-linejoin:miter;stroke-opacity:1' />
<path d='M 122.9,175.6 L 118.3,178.3 L 114.4,176.1' style='fill:none;stroke:#000000;stroke-width:2.0px;stroke-linecap:butt;stroke-linejoin:miter;stroke-miterlimit:10;stroke-opacity:1;' />
<path class='atom-1' d='M184.854,77.275 C181.341,79.3077 184.051,83.9921 187.565,81.9594 C191.078,79.9267 193.788,84.6111 190.275,86.6438 C186.761,88.6765 189.472,93.361 192.985,91.3283 C196.498,89.2955 199.209,93.98 195.695,96.0127 C192.182,98.0454 194.892,102.73 198.405,100.697 C201.919,98.6644 204.629,103.349 201.116,105.381 C197.602,107.414 200.312,112.099 203.826,110.066 C207.339,108.033 210.049,112.718 206.536,114.75 C203.023,116.783 205.733,121.467 209.246,119.435 C212.76,117.402 215.47,122.086 211.956,124.119 C208.443,126.152 211.153,130.836 214.667,128.804 C218.18,126.771 220.89,131.455 217.377,133.488 C213.863,135.521 216.574,140.205 220.087,138.172 C223.601,136.14 226.311,140.824 222.797,142.857 C219.284,144.89 221.994,149.574 225.508,147.541 C229.021,145.508 231.731,150.193 228.218,152.226 C224.704,154.258 227.415,158.943 230.928,156.91 C234.441,154.877 237.152,159.562 233.638,161.594 C230.125,163.627 232.835,168.312 236.348,166.279 C239.862,164.246 242.572,168.931 239.059,170.963' style='fill:none;stroke:#7F7F7F;stroke-width:2.0px;stroke-linecap:butt;stroke-linejoin:miter;stroke-opacity:1' />
<text x='16.5' y='137.2' class='atom-2' style='font-size:40px;font-style:normal;font-weight:normal;fill-opacity:1;stroke:none;font-family:sans-serif;text-anchor:start;fill:#000000' >O</text>
</svg>
